svg/u1f400.svg

<svg viewBox="0 0 128 128" xmlns="http://www.w3.org/2000/svg">
  <path d="M10.77,56.62c-0.18,0-0.37-0.05-0.54-0.15L4.4,52.37c-0.51-0.3-0.68-0.96-0.38-1.47 c0.3-0.51,0.96-0.69,1.47-0.38l5.83,4.11c0.51,0.3,0.68,0.96,0.38,1.47C11.49,56.43,11.13,56.62,10.77,56.62z" fill="#6BA3AB"/>
  <path d="M1.75,57.47c-0.58,0-1.06-0.46-1.07-1.04c-0.02-0.59,0.45-1.09,1.04-1.1l8.61,1.12 c0.6-0.03,1.09,0.45,1.1,1.04c0.02,0.59-0.45,1.09-1.04,1.1l-8.61-1.12C1.77,57.47,1.76,57.47,1.75,57.47z" fill="#6BA3AB"/>
  <path d="M2.83,63.18c-0.28-0.12-0.52-0.36-0.61-0.68c-0.17-0.57,0.15-1.17,0.72-1.34l7.66-2.27 c0.57-0.17,1.17,0.15,1.34,0.72c0.17,0.57-0.15,1.17-0.72,1.34l-7.66,2.27C3.31,63.29,3.05,63.27,2.83,63.18z" fill="#6BA3AB"/>
  <path d="M86.86,97.6c0,0-5.82-1.28-10.35,0s-6.49,4.53-5.67,6.42c0.76,1.74,6.19-0.15,11.78-0.15 s15.26-0.23,16.92-1.28c1.66-1.06,0.3-7.18,0.3-7.18L86.86,97.6z" fill="#FDD3B1"/>
  <path d="M39.27,97.38c0,0-1.28,0.6-2.64,1.74c-1.44,1.2-3.17,2.87-2.04,4.31s3.4,0.6,3.4,0.6 s-0.3,1.13,1.96,1.59c2.27,0.45,7.18-2.42,7.18-2.42L39.27,97.38z" fill="#FDD3B1"/>
  <path d="M106.95,81.66c0,0,4.76,0.45,10.5,4.53c5.43,3.86,11.75,10.93,9.14,21.45 c-2.64,10.65-14.43,16.69-28.93,15.86c-13.89-0.8-28.28-9.4-35.81-8.84c-12.16,0.91-15.79,7.86-16.85,7.33 c-1.06-0.53,0.53-8.91,10.65-11.94c8.37-2.5,15.41-1.06,24.85,1.89c9.44,2.95,29.16,7.95,35.96-2.79 c7.4-11.71-4.83-16.39-8.61-18.21C104.08,89.14,106.95,81.66,106.95,81.66z" fill="#FDD3B1"/>
  <path d="M53.85,34.15c0,0,0.19-2.44-1.28-5.14c-1.18-2.17-3.02-4.91-8.01-5.36 C33.41,22.64,30.64,35.06,30.51,38.3c-0.15,3.78,0.98,8.38,0.98,8.38l16.69-1.81L53.85,34.15z" fill="#6DA3AF"/>
  <path d="M42.52,77.74c0,0-0.37,9.24-0.53,11.94c-0.3,5.14-3.85,5.51-4,7.86c-0.23,3.52,5.44,1.74,5.44,1.74 l10.65-13.45L42.52,77.74z" fill="#6DA3AF"/>
  <path d="M56.87,91.63c0,0-14.43,9.37-13.14,10.42c1.06,0.87,2.6,1.69,5.06,1.44c2.87-0.3,9.9-3.02,12.46-5.44 c1.67-1.57,3.25-4.23,3.25-4.23s4.61,1.36,7.78,1.51c3.17,0.15,7.86-0.23,7.86-0.23s7.48,8.91,18.66,6.42 c11.18-2.49,11.26-12.84,11.26-12.84L99.33,67.54l-22.28-9.44L56.87,78.87V91.63z" fill="#6DA3AF"/>
  <path d="M60.27,54.92c0,0,4.37-2.62,6.95-6.82c2.19-3.56,2.93-8.35,0.3-12.82 c-2.78-4.72-7.79-5.62-11.63-4.54c-7.22,2.03-8.31,9.6-8.31,9.6s-2.19-1.81-7.03-1.74c-4.83,0.08-10.95,2.12-16.24,5.29 c-5.29,3.17-6.35,4.91-10.05,6.72c-3.7,1.81-5.74,1.89-5.89,3.85c-0.15,1.96,0.6,4.76,3.55,7.71c2.95,2.95,8.84,4.83,10.95,5.51 s4.83,1.89,7.78,2.12c2.95,0.23,5.06,0.23,5.06,0.23s0.98,3.1,4.23,7.1c3.25,4,8.91,8.84,8.91,8.84s-0.83,5.59-1.89,7.1 c-1.06,1.51-6.42,5.14-4.31,8.01s7.18,0.68,11.1-1.13s5.44-2.19,7.25-4.46c1-1.25,2.42-4.15,2.42-4.15s2.64,0.91,6.95,1.59 c4.31,0.68,7.71,0.38,7.71,0.38s-7.4-8.76-6.87-16.39c0.53-7.63,5.14-13.52,9.44-14.13c4.31-0.6-1.98,4.85-3.17,7.18 c-1.51,2.95-4.08,10.12,0.53,17.45c4.61,7.33,12.76,13.27,20.77,11.94c7.71-1.28,11.41-6.27,11.71-13.14 c0.21-4.69-0.23-18.89-5.59-26.44c-5.36-7.55-12.97-12.36-24.75-11C69.96,49.93,60.27,54.92,60.27,54.92z" fill="#B5C2C8"/>
  <path d="M62.08,37.17c-3.59-3.05-8.86-0.05-10.12,4.78c-1.26,4.83,0.44,8.92,6.95,6.3 C64.4,46.03,65.11,39.74,62.08,37.17z" fill="#FFD3B0"/>
  <path d="M9.56,59.38l4.13-4.03c0,0-0.81-1.56-2.97-2.27S8,53.89,8.15,56.11C8.3,58.32,9.1,59.23,9.56,59.38z" fill="#FFD3B0"/>
  <path d="M37.37,54.84c-1.04,1.8-2.68,2.47-4.14,1.94c-1.36-0.49-1.43-2.76-0.39-4.56 c1.04-1.8,2.39-2.63,4.17-2.01C38.37,50.69,38.4,53.04,37.37,54.84z" fill="#2D2B2E"/>
  <path d="M51.31,63.91c1.04,1.71-3.01,4.37-5.84,5.59c-5.29,2.27-9.77,2.57-17.63,0.96 c-7.24-1.49-12.44-4.18-15.36-6.6c-1.93-1.6-3.02-3.22-2.77-3.88c0.66-1.71,2.75,1.37,4.08,2.37c2.97,2.22,6.06,3.09,7.72,3.16 c3.21,0.12,6.43-2.15,7.44-1.09c1.91,2.01-3.83,3.02-3.83,3.02s6.35,1.91,10.53,1.41s8.61-2.06,10.83-3.53 C48.69,63.86,50.6,62.75,51.31,63.91z" fill="#6BA3AB"/>
  <path d="M14.44,55.5c0.79,1.01-1.31,2.72-2.22,3.47c-0.91,0.76-2.01,2.17-2.52,1.01 c-0.5-1.16-0.3-1.51,1.41-3.07C12.83,55.35,13.54,54.34,14.44,55.5z" fill="#2D2B2E"/>
</svg>

<svg viewBox="0 0 128 128" xmlns="http://www.w3.org/2000/svg">
  <defs/>
  <path d="M10.77,56.62 C10.59,56.62 10.4,56.57 10.23,56.47 L4.4,52.37 C3.89,52.07 3.72,51.41 4.02,50.9 C4.32,50.39 4.98,50.21 5.49,50.52 L11.32,54.63 C11.83,54.93 12,55.59 11.7,56.1 C11.49,56.43 11.13,56.62 10.77,56.62 Z" fill="#6BA3AB"/>
  <path d="M1.75,57.47 C1.17,57.47 0.69,57.01 0.68,56.43 C0.66,55.84 1.13,55.34 1.72,55.33 L10.33,56.45 C10.93,56.42 11.42,56.9 11.43,57.49 C11.45,58.08 10.98,58.58 10.39,58.59 L1.78,57.47 C1.77,57.47 1.76,57.47 1.75,57.47 Z" fill="#6BA3AB"/>
  <path d="M2.83,63.18 C2.55,63.06 2.31,62.82 2.22,62.5 C2.05,61.93 2.37,61.33 2.94,61.16 L10.6,58.89 C11.17,58.72 11.77,59.04 11.94,59.61 C12.11,60.18 11.79,60.78 11.22,60.95 L3.56,63.22 C3.31,63.29 3.05,63.27 2.83,63.18 Z" fill="#6BA3AB"/>
  <path d="M86.86,97.6 C86.86,97.6 81.04,96.32 76.51,97.6 C71.98,98.88 70.02,102.13 70.84,104.02 C71.6,105.76 77.03,103.87 82.62,103.87 C88.21,103.87 97.88,103.64 99.54,102.59 C101.2,101.53 99.84,95.41 99.84,95.41 L86.86,97.6 Z" fill="#FDD3B1"/>
  <path d="M39.27,97.38 C39.27,97.38 37.99,97.98 36.63,99.12 C35.19,100.32 33.46,101.99 34.59,103.43 C35.72,104.87 37.99,104.03 37.99,104.03 C37.99,104.03 37.69,105.16 39.95,105.62 C42.22,106.07 47.13,103.2 47.13,103.2 L39.27,97.38 Z" fill="#FDD3B1"/>
  <path d="M106.95,81.66 C106.95,81.66 111.71,82.11 117.45,86.19 C122.88,90.05 129.2,97.12 126.59,107.64 C123.95,118.29 112.16,124.33 97.66,123.5 C83.77,122.7 69.38,114.1 61.85,114.66 C49.69,115.57 46.06,122.52 45,121.99 C43.94,121.46 45.53,113.08 55.65,110.05 C64.02,107.55 71.06,108.99 80.5,111.94 C89.94,114.89 109.66,119.89 116.46,109.15 C123.86,97.44 111.63,92.76 107.85,90.94 C104.08,89.14 106.95,81.66 106.95,81.66 Z" fill="#FDD3B1"/>
  <path d="M53.85,34.15 C53.85,34.15 54.04,31.71 52.57,29.01 C51.39,26.84 49.55,24.1 44.56,23.65 C33.41,22.64 30.64,35.06 30.51,38.3 C30.36,42.08 31.49,46.68 31.49,46.68 L48.18,44.87 L53.85,34.15 Z" fill="#6DA3AF"/>
  <path d="M42.52,77.74 C42.52,77.74 42.15,86.98 41.99,89.68 C41.69,94.82 38.14,95.19 37.99,97.54 C37.76,101.06 43.43,99.28 43.43,99.28 L54.08,85.83 L42.52,77.74 Z" fill="#6DA3AF"/>
  <path d="M56.87,91.63 C56.87,91.63 42.44,101 43.73,102.05 C44.79,102.92 46.33,103.74 48.79,103.49 C51.66,103.19 58.69,100.47 61.25,98.05 C62.92,96.48 64.5,93.82 64.5,93.82 C64.5,93.82 69.11,95.18 72.28,95.33 C75.45,95.48 80.14,95.1 80.14,95.1 C80.14,95.1 87.62,104.01 98.8,101.52 C109.98,99.03 110.06,88.68 110.06,88.68 L99.33,67.54 L77.05,58.1 L56.87,78.87 L56.87,91.63 Z" fill="#6DA3AF"/>
  <path d="M60.27,54.92 C60.27,54.92 64.64,52.3 67.22,48.1 C69.41,44.54 70.15,39.75 67.52,35.28 C64.74,30.56 59.73,29.66 55.89,30.74 C48.67,32.77 47.58,40.34 47.58,40.34 C47.58,40.34 45.39,38.53 40.55,38.6 C35.72,38.68 29.6,40.72 24.31,43.89 C19.02,47.06 17.96,48.8 14.26,50.61 C10.56,52.42 8.52,52.5 8.37,54.46 C8.22,56.42 8.97,59.22 11.92,62.17 C14.87,65.12 20.76,67 22.87,67.68 C24.98,68.36 27.7,69.57 30.65,69.8 C33.6,70.03 35.71,70.03 35.71,70.03 C35.71,70.03 36.69,73.13 39.94,77.13 C43.19,81.13 48.85,85.97 48.85,85.97 C48.85,85.97 48.02,91.56 46.96,93.07 C45.9,94.58 40.54,98.21 42.65,101.08 C44.76,103.95 49.83,101.76 53.75,99.95 C57.67,98.14 59.19,97.76 61,95.49 C62,94.24 63.42,91.34 63.42,91.34 C63.42,91.34 66.06,92.25 70.37,92.93 C74.68,93.61 78.08,93.31 78.08,93.31 C78.08,93.31 70.68,84.55 71.21,76.92 C71.74,69.29 76.35,63.4 80.65,62.79 C84.96,62.19 78.67,67.64 77.48,69.97 C75.97,72.92 73.4,80.09 78.01,87.42 C82.62,94.75 90.77,100.69 98.78,99.36 C106.49,98.08 110.19,93.09 110.49,86.22 C110.7,81.53 110.26,67.33 104.9,59.78 C99.54,52.23 91.93,47.42 80.15,48.78 C69.96,49.93 60.27,54.92 60.27,54.92 Z" fill="#B5C2C8"/>
  <path d="M62.08,37.17 C58.49,34.12 53.22,37.12 51.96,41.95 C50.7,46.78 52.4,50.87 58.91,48.25 C64.4,46.03 65.11,39.74 62.08,37.17 Z" fill="#FFD3B0"/>
  <path d="M9.56,59.38 L13.69,55.35 C13.69,55.35 12.88,53.79 10.72,53.08 C8.56,52.37 8,53.89 8.15,56.11 C8.3,58.32 9.1,59.23 9.56,59.38 Z" fill="#FFD3B0"/>
  <path d="M37.37,54.84 C36.33,56.64 34.69,57.31 33.23,56.78 C31.87,56.29 31.8,54.02 32.84,52.22 C33.88,50.42 35.23,49.59 37.01,50.21 C38.37,50.69 38.4,53.04 37.37,54.84 Z" fill="#2D2B2E"/>
  <path d="M51.31,63.91 C52.35,65.62 48.3,68.28 45.47,69.5 C40.18,71.77 35.7,72.07 27.84,70.46 C20.6,68.97 15.4,66.28 12.48,63.86 C10.55,62.26 9.46,60.64 9.71,59.98 C10.37,58.27 12.46,61.35 13.79,62.35 C16.76,64.57 19.85,65.44 21.51,65.51 C24.72,65.63 27.94,63.36 28.95,64.42 C30.86,66.43 25.12,67.44 25.12,67.44 C25.12,67.44 31.47,69.35 35.65,68.85 C39.83,68.35 44.26,66.79 46.48,65.32 C48.69,63.86 50.6,62.75 51.31,63.91 Z" fill="#6BA3AB"/>
  <path d="M14.44,55.5 C15.23,56.51 13.13,58.22 12.22,58.97 C11.31,59.73 10.21,61.14 9.7,59.98 C9.2,58.82 9.4,58.47 11.11,56.91 C12.83,55.35 13.54,54.34 14.44,55.5 Z" fill="#2D2B2E"/>
</svg>
